!! 00000] TT[WS
!!!OTL: Zhenzhu daojuanlian
!!!ARE: Asia, China, Shanxi Linxian
!! Ethnic Group: Han
!! WII, 194 (1)
!!!SCT: J0691
!!!YEM: Copyright 1995, estate of Helmut Schaffrath.
**kern
*ICvox
*Ivox
*M2/4
*k[b-e-a-]
*E-:
{8ff
8ff
8gg
8ee-
=1
2ff
=2
8gg
8ff
8ee-
8ff
=3
8ee-
8cc
4b-}
=4
{8ee-
16ee-
16ee-
8ff
8ee-
=5
8cc
8ee-
8b-
8a-
=6
2f
=7
8b-
8b-
8a-
8b-
=8
8cc
8a-
4b-}
=9
{8ee-
8ee-
8ff
8ee-
=10
8cc
8ee-
8b-
8g
=11
2f}
==
!!!AGN: Xiaodiao, Shidiao. XÅshi
!!!ONB: ESAC (Essen Associative Code) Database: CHINA
!!!AMT: simple duple
!!!AIN: vox
!!!EED: Helmut Schaffrath
!!!EEV: 1.0
*-
